static/images/social/vimeo-logo.svg

<svg height="150" viewBox="0 0 150 150" width="150" xmlns="http://www.w3.org/2000/svg"><path d="m120.012647 20.2217647c-17.586765-.5738235-29.4879411 9.2914706-35.7197058 29.6070588 3.2094117-1.3217647 6.3282353-1.9888235 9.37-1.9888235 6.4129408 0 9.2514708 3.5991176 8.4938238 10.8164706-.375883 4.3705882-3.2091179 10.73-8.4938238 19.0758823-5.3055883 8.3597059-9.2685294 12.532353-11.9011765 12.532353-3.4179412 0-6.5291176-6.4582353-9.3697059-19.3588235-.952647-3.7994118-2.6561764-13.4741177-5.0952941-29.0485295-2.2867647-14.4252941-8.3294118-21.1652941-18.155-20.2179411-4.1564706.3820588-10.3829412 4.1885294-18.6929412 11.3923529-6.062647 5.5070588-12.2052941 11.0155882-18.4488235 16.5185294l5.9485294 7.68c5.677353-3.9888235 8.9985294-5.9738235 9.9208824-5.9738235 4.3535294 0 8.4191176 6.8291176 12.2023529 20.4855882 3.3911765 12.542353 6.8111765 25.0676471 10.2188235 37.5917652 5.0752942 13.66647 11.3320589 20.502352 18.6917647 20.502352 11.9038236 0 26.4788236-11.195588 43.6673531-33.5949995 16.628529-21.4438236 25.213235-38.3388236 25.792353-50.6885294.763235-16.5044118-5.379412-24.9561765-18.429412-25.3308824z" fill="#fff"/></svg>

<?xml version="1.0" encoding="UTF-8"?>
<svg width="150px" height="150px" viewBox="0 0 150 150" version="1.1" xmlns="http://www.w3.org/2000/svg" xmlns:xlink="http://www.w3.org/1999/xlink">
    <!-- Generator: Sketch 54.1 (76490) - https://sketchapp.com -->
    <title>Vimeo</title>
    <desc>Created with Sketch.</desc>
    <g id="Vimeo" stroke="none" stroke-width="1" fill="none" fill-rule="evenodd">
        <path d="M120.012647,20.2217647 C102.425882,19.6479412 90.5247059,29.5132353 84.2929412,49.8288235 C87.5023529,48.5070588 90.6211765,47.84 93.6629412,47.84 C100.075882,47.84 102.914412,51.4391176 102.156765,58.6564706 C101.780882,63.0270588 98.9476471,69.3864706 93.6629412,77.7323529 C88.3573529,86.0920588 84.3944118,90.2647059 81.7617647,90.2647059 C78.3438235,90.2647059 75.2326471,83.8064706 72.3920588,70.9058824 C71.4394118,67.1064706 69.7358824,57.4317647 67.2967647,41.8573529 C65.01,27.4320588 58.9673529,20.6920588 49.1417647,21.6394118 C44.9852941,22.0214706 38.7588235,25.8279412 30.4488235,33.0317647 C24.3861765,38.5388235 18.2435294,44.0473529 12,49.5502941 L17.9485294,57.2302941 C23.6258824,53.2414706 26.9470588,51.2564706 27.8694118,51.2564706 C32.2229412,51.2564706 36.2885294,58.0855882 40.0717647,71.7420588 C43.4629412,84.2844118 46.8829412,96.8097059 50.2905882,109.333824 C55.3658824,123.000294 61.6226471,129.836176 68.9823529,129.836176 C80.8861765,129.836176 95.4611765,118.640588 112.649706,96.2411765 C129.278235,74.7973529 137.862941,57.9023529 138.442059,45.5526471 C139.205294,29.0482353 133.062647,20.5964706 120.012647,20.2217647 Z" id="Vimeo-logo" fill="#FFFFFF" fill-rule="nonzero"></path>
    </g>
</svg>
